images/icons/ko-fi.svg

<svg fill="none" height="24" viewBox="0 0 24 24" width="24" xmlns="http://www.w3.org/2000/svg"><path d="m19.6314 4.51096c2.0716.57547 3.5842 2.02233 4.1268 3.946.6413 2.31004-.0082 4.57074-1.7675 6.07524-.9454.8056-2.6717 1.4057-4.0775 1.4057h-.6248l-.0658.5919c-.1561 1.5949-.9371 2.6718-2.2196 3.0417-.2384.074-2.0716.0987-6.57665.0987l-6.24783.0082-.49325-.2302c-.789206-.3699-1.389331-1.044-1.6195032-1.825-.0328723-.1315-.0657668-3.0088-.0657668-6.3958 0-6.63421.00000003-6.62598.427484-6.79863.115098-.0411 3.995316-.07399 9.396426-.07399 9.00179-.00822 9.22379-.00823 9.80749.15618z" fill="#fff"/><path d="m17.3459 10.1834v2.7951h.7235c1.2742 0 2.0552-.4357 2.5649-1.4305.2713-.5425.2877-.6083.2877-1.4386 0-.7892-.0246-.91252-.2302-1.33999-.2466-.50969-.707-.95362-1.2495-1.21669-.2713-.13153-.5097-.16441-1.2167-.16441h-.8797z" fill="#13c3ff"/><path d="m10.2665 8.07966c-.60008.1973-.78916.30418-1.25774.69057l-.38638.32061-.3535-.28773c-1.16735-.95362-2.8773-1.06049-3.83913-.2384-.47681.41105-.67408.84676-.72339 1.59489-.04111.6659.09865 1.2989.411 1.9072.09043.1808.48504.6577.87141 1.0687 1.20847 1.2578 3.48564 3.3459 3.65006 3.3459.09865 0 .99472-.8303 2.24427-2.0799 1.8826-1.8743 2.1128-2.1292 2.3512-2.6389.337-.7152.411-1.5455.2055-2.17027-.4028-1.20024-1.9237-1.92371-3.1733-1.51267z" fill="#ff5f5f"/></svg>

<svg width="24" height="24" viewBox="0 0 24 24" fill="none" xmlns="http://www.w3.org/2000/svg">
<path d="M19.6314 4.51096C21.703 5.08643 23.2156 6.53329 23.7582 8.45696C24.3995 10.767 23.75 13.0277 21.9907 14.5322C21.0453 15.3378 19.319 15.9379 17.9132 15.9379H17.2884L17.2226 16.5298C17.0665 18.1247 16.2855 19.2016 15.003 19.5715C14.7646 19.6455 12.9314 19.6702 8.42635 19.6702L2.17852 19.6784L1.68527 19.4482C0.896064 19.0783 0.295939 18.4042 0.0657668 17.6232C0.0328945 17.4917 0 14.6144 0 11.2274C0 4.59319 3.31193e-08 4.60142 0.427484 4.42877C0.542582 4.38767 4.4228 4.35478 9.82391 4.35478C18.8257 4.34656 19.0477 4.34655 19.6314 4.51096Z" fill="white"/>
<path d="M17.3459 10.1834V12.9785H18.0694C19.3436 12.9785 20.1246 12.5428 20.6343 11.548C20.9056 11.0055 20.922 10.9397 20.922 10.1094C20.922 9.3202 20.8974 9.19688 20.6918 8.76941C20.4452 8.25972 19.9848 7.81579 19.4423 7.55272C19.171 7.42119 18.9326 7.38831 18.2256 7.38831H17.3459V10.1834Z" fill="#13C3FF"/>
<path d="M10.2665 8.07966C9.66642 8.27696 9.47734 8.38384 9.00876 8.77023L8.62238 9.09084L8.26888 8.80311C7.10153 7.84949 5.39158 7.74262 4.42975 8.56471C3.95294 8.97576 3.75567 9.41147 3.70636 10.1596C3.66525 10.8255 3.80501 11.4585 4.11736 12.0668C4.20779 12.2476 4.6024 12.7245 4.98877 13.1355C6.19724 14.3933 8.47441 16.4814 8.63883 16.4814C8.73748 16.4814 9.63355 15.6511 10.8831 14.4015C12.7657 12.5272 12.9959 12.2723 13.2343 11.7626C13.5713 11.0474 13.6453 10.2171 13.4398 9.59233C13.037 8.39209 11.5161 7.66862 10.2665 8.07966Z" fill="#FF5F5F"/>
</svg>
